X:4760
T:El Perlindango
R:Danza
C:Tradicional
S:Música Tradicional Asturiana, (C) Tello & Tito. Asturies, 2001.
S:http://pagina.de/MusTradAst <telloytito@asturies.org>
N:D'ente les xirandiyes, El Perlindango ye una pieza esclusiva de Cuideiru.
N:Baillábenlu namái les muyeres vieyes qu'acompañándose de coples picarones, diben faciendo'l xiru selemente pa la mandrecha fasta llegar al estribillu, momentu nel que ximelgaben con remangu'l mandil o perlindango.
O:Cuideiru
A:Asturies
Z:ByD IDEA
M:2/4
L:1/8
Q:1/4=112
W:Probes mariñéirus,
W:tristes y aflixidos:
W:las vuestras muyeres,
W:con otros maridus,
W:las vuestras muyeres,
W:con otros maridus.
W:
W:Perlindango, dango,
W:perlindango, dango, dingo,
W:ese perlindango, dango,
W:traxolo'l mio Mingo. (Pie)
W:
W:Unas colus curas,
W:otras colus frailes
W:y las más hermorsas,
W:colus capellanes,
W:y las más hermosas,
W:colus capellanes.
W:
W:Pie.
K:Dm
|A3/2A/ AA|d2 A2-|A2 z2|
|d3/2d/ dc|A2 G2|A G3-|G2 z2|cc cB|
M:3/4
|A2 F2 GF|GF E2 GF|GF E4|z6|z6|A4 A2|G4 E2|F2 D4|



Xiraldilla
C:Tradicional
S:Música Tradicional Asturiana, (C) Tello & Tito. Asturies, 2001.
S:http://pagina.de/MusTradAst <telloytito@asturies.org>
N:Canción de Baille, transcrita en Cuideiru.
N:Se conoce este baile con el nombre de El Perlindango, y acerca de él nos ha comunicado D. Agustín Bravo, de Cuideiru, lo siguiente:
N:«El Perlindango es un baile local antiquísimo.
N:Su nombre se deriva del de una clase delantales que antaño formaba parte de la indumentaria de lujo de las aldeanas de estos contornos.
N:¿Que por qué se llama aquí perlindangos a estos delantales? Nadie me lo explica.
N:El Perlindango es una especia de xiraldilla lenta, que bailan casi siempre las mujeres viejas, y sus coplas suelen ser un tanto atrevidas.
N:Bailan agarradas por las manos mientras dura la estrofa, formando una rueda que gira hacia la derecha, soltándose al cantar el estribillo para coger el delantal y moverlo hacia los lados rítmicamente».
O:Cuideiru
A:Asturies
Z:Cancioneru de Torner 130
M:3/4
L:1/8
Q:1/4=116
W:Probes mariñeirus,
W:tristes y aflixidus:
W:las vuestras muyeres,
W:con otros maridus,
W:las vuestras muyeres
W:con otros maridus,
W:
W:Perlindango, perlindango,
W:dango, dingo,
W:ese perlindango,
W:dango dango,
W:tráxolo el mio Mingo.
W:
W:Unas colus curas,
W:otras colus frailes
W:y las más hermosas,
W:colus capellanes,
W:y las más hermosas,
W:colus capellanes.
W:
W:Perlindango, perlindango,
W:dango, dingo,
W:ese perlindango,
W:dango dango,
W:tráxolo el mio Mingo.
K:Gm
dd dd
|g2 d4-|d2 gg gg|d2 c4-|c2 dd dd|c2 A4-|A2 dd dd|B2 G4-|
G2 GA Bc|d2 A4-|A2 dd dd|B2 G4-|
G2 GA Bc|d2 G4-|G2 gg gg|[M:2/4]d2 c2|[M:3/4]d2 c4-|
c2 ff fe|[M:2/4]d3 c|[M:3/4]e2 d4-|d2 dd dd|B2 G4-|G2 :||



